src/images/tw_white.svg

<?xml version="1.0" encoding="UTF-8"?>
<svg width="48px" height="48px" viewBox="0 0 48 48" version="1.1" xmlns="http://www.w3.org/2000/svg" xmlns:xlink="http://www.w3.org/1999/xlink">
    <!-- Generator: Sketch 42 (36781) - http://www.bohemiancoding.com/sketch -->
    <title>twitter_white</title>
    <desc>Created with Sketch.</desc>
    <defs></defs>
    <g id="Welcome" stroke="none" stroke-width="1" fill="none" fill-rule="evenodd">
        <g id="twitter_white" fill-rule="nonzero" fill="#FFFFFF">
            <g id="Twitter">
                <g id="Welcome">
                    <g id="Mobile-Portrait-Copy-15">
                        <g id="Twitter">
                            <path d="M0,24 C0,10.7451653 10.7451653,0 24,0 C37.2548347,0 48,10.7451653 48,24 C48,37.2548347 37.2548347,48 24,48 C10.7451653,48 0,37.2548347 0,24 Z M25.2812026,19.5075006 L25.3315651,20.3379548 L24.4921899,20.2362665 C21.4368642,19.8464615 18.7676511,18.5245141 16.5013381,16.3043204 L15.3933628,15.2026975 L15.1079753,16.0162036 C14.5036251,17.8296443 14.8897377,19.7447732 16.1488005,21.0328246 C16.8203007,21.7446424 16.6692131,21.8463307 15.5108754,21.4226296 C15.1079753,21.2870452 14.7554377,21.185357 14.7218627,21.2362011 C14.6043501,21.3548374 15.0072502,22.8971094 15.3262128,23.507239 C15.7626879,24.3546411 16.6524256,25.1850953 17.6261008,25.6765886 L18.4486885,26.0663936 L17.4750133,26.0833416 C16.5349131,26.0833416 16.5013381,26.1002897 16.6020631,26.4561986 C16.9378132,27.5578214 18.264026,28.7272364 19.7413263,29.2356778 L20.7821516,29.5915867 L19.8756264,30.1339241 C18.5326261,30.9135341 16.9546007,31.3541832 15.3765753,31.3880793 C14.6211376,31.4050274 14,31.4728195 14,31.5236637 C14,31.6931441 16.0480755,32.6422346 17.2399883,33.0150915 C20.8157266,34.1167144 25.0629651,33.6421691 28.2525908,31.7609363 C30.5189038,30.4220408 32.7852169,27.7611979 33.8428296,25.1850953 C34.4136047,23.8123037 34.9843799,21.3039933 34.9843799,20.1006822 C34.9843799,19.3210721 35.0347424,19.2193839 35.9748426,18.2872415 C36.5288302,17.7449041 37.0492429,17.1517225 37.1499679,16.9822421 C37.3178429,16.6602293 37.3010554,16.6602293 36.4448927,16.948346 C35.0179549,17.4567873 34.8165048,17.3889952 35.52158,16.6263332 C36.0419926,16.0839958 36.6631303,15.1010092 36.6631303,14.8128925 C36.6631303,14.7620484 36.4113177,14.8467886 36.1259301,14.999321 C35.8237551,15.1688014 35.1522549,15.4230221 34.6486298,15.5755545 L33.7421046,15.8636712 L32.9195169,15.3043858 C32.4662543,14.999321 31.8283291,14.6603601 31.4925791,14.5586718 C30.6364164,14.3213992 29.3269911,14.3552953 28.5547659,14.626464 C26.4563279,15.389126 25.1301151,17.3550991 25.2812026,19.5075006 Z" id="Combined-Shape"></path>
                        </g>
                    </g>
                </g>
            </g>
        </g>
    </g>
</svg>

<svg viewBox="0 0 48 48" xmlns="http://www.w3.org/2000/svg"><path d="M0 24C0 10.745 10.745 0 24 0s24 10.745 24 24-10.745 24-24 24S0 37.255 0 24zm25.281-4.492l.05.83-.839-.102c-3.055-.39-5.724-1.711-7.99-3.932l-1.109-1.101-.285.813c-.604 1.814-.218 3.729 1.04 5.017.672.712.521.813-.637.39-.403-.136-.756-.238-.79-.187-.117.119.286 1.661.605 2.271.437.848 1.326 1.678 2.3 2.17l.823.39-.974.016c-.94 0-.974.017-.873.373.336 1.102 1.662 2.271 3.14 2.78l1.04.356-.906.542a9.452 9.452 0 0 1-4.5 1.254c-.755.017-1.376.085-1.376.136 0 .17 2.048 1.118 3.24 1.491 3.576 1.102 7.823.627 11.013-1.254 2.266-1.339 4.532-4 5.59-6.576.57-1.373 1.141-3.881 1.141-5.084 0-.78.05-.882.99-1.814.555-.542 1.075-1.135 1.176-1.305.168-.322.151-.322-.705-.034-1.427.509-1.628.441-.923-.322.52-.542 1.141-1.525 1.141-1.813 0-.051-.252.034-.537.186-.302.17-.974.424-1.477.577l-.907.288-.822-.56c-.454-.305-1.092-.644-1.427-.745-.857-.238-2.166-.204-2.938.067-2.099.763-3.425 2.73-3.274 4.882z" fill="#FFF"/></svg>
